src/lib/packages/icons/src/assets/line/coin-card-transfer.svg

<svg width="24" height="24" viewBox="0 0 24 24" fill="none" xmlns="http://www.w3.org/2000/svg">
<path d="M3.00096 11.8C2.97396 11.8 2.94599 11.799 2.91899 11.796C2.50699 11.751 2.20899 11.38 2.25499 10.969C2.61699 7.65099 4.61897 4.79503 7.60997 3.32703C7.84297 3.21303 8.11696 3.22701 8.33696 3.36401C8.55696 3.50101 8.69096 3.74198 8.69096 4.00098V7.05103C8.69096 7.46503 8.35496 7.80103 7.94096 7.80103C7.52696 7.80103 7.19096 7.46503 7.19096 7.05103V5.31006C5.26696 6.64806 4.00596 8.75006 3.74596 11.1331C3.70296 11.5151 3.37896 11.8 3.00096 11.8ZM21.081 12.205C20.673 12.161 20.3 12.457 20.255 12.869C19.994 15.252 18.734 17.353 16.81 18.692V16.951C16.81 16.5371 16.474 16.201 16.06 16.201C15.646 16.201 15.31 16.5371 15.31 16.951V20.001C15.31 20.26 15.444 20.5009 15.664 20.6379C15.785 20.7129 15.923 20.751 16.06 20.751C16.172 20.751 16.286 20.726 16.39 20.674C19.381 19.207 21.383 16.35 21.745 13.032C21.791 12.62 21.493 12.25 21.081 12.205ZM11.25 7C11.25 4.381 13.381 2.25 16 2.25C18.619 2.25 20.75 4.381 20.75 7C20.75 9.619 18.619 11.75 16 11.75C13.381 11.75 11.25 9.619 11.25 7ZM12.75 7C12.75 8.792 14.208 10.25 16 10.25C17.792 10.25 19.25 8.792 19.25 7C19.25 5.208 17.792 3.75 16 3.75C14.208 3.75 12.75 5.208 12.75 7ZM13.75 15.5V19.5C13.75 20.909 12.909 21.75 11.5 21.75H5.49998C4.09098 21.75 3.24998 20.909 3.24998 19.5V15.5C3.24998 14.091 4.09098 13.25 5.49998 13.25H11.5C12.909 13.25 13.75 14.091 13.75 15.5ZM4.74998 15.5V15.75H12.25V15.5C12.25 14.911 12.089 14.75 11.5 14.75H5.49998C4.91098 14.75 4.74998 14.911 4.74998 15.5ZM12.25 19.5V17.25H4.74998V19.5C4.74998 20.089 4.91098 20.25 5.49998 20.25H11.5C12.089 20.25 12.25 20.089 12.25 19.5ZM7.49998 18.25H5.99998C5.58598 18.25 5.24998 18.586 5.24998 19C5.24998 19.414 5.58598 19.75 5.99998 19.75H7.49998C7.91398 19.75 8.24998 19.414 8.24998 19C8.24998 18.586 7.91398 18.25 7.49998 18.25Z" fill="currentColor"/>
</svg>

<svg xmlns="http://www.w3.org/2000/svg" width="24" height="24" fill="none"><path fill="currentColor" d="M3.001 11.8a.75.75 0 0 1-.746-.831A9.632 9.632 0 0 1 7.61 3.327a.75.75 0 0 1 1.081.674v3.05a.75.75 0 0 1-1.5 0v-1.74a8.136 8.136 0 0 0-3.445 5.822.751.751 0 0 1-.745.667Zm18.08.405a.752.752 0 0 0-.826.664 8.141 8.141 0 0 1-3.445 5.823v-1.741a.75.75 0 0 0-1.5 0v3.05a.75.75 0 0 0 1.08.673 9.63 9.63 0 0 0 5.355-7.642.749.749 0 0 0-.664-.827ZM11.25 7A4.756 4.756 0 0 1 16 2.25 4.756 4.756 0 0 1 20.75 7 4.756 4.756 0 0 1 16 11.75 4.756 4.756 0 0 1 11.25 7Zm1.5 0A3.254 3.254 0 0 0 16 10.25 3.254 3.254 0 0 0 19.25 7 3.254 3.254 0 0 0 16 3.75 3.254 3.254 0 0 0 12.75 7Zm1 8.5v4c0 1.409-.841 2.25-2.25 2.25h-6c-1.409 0-2.25-.841-2.25-2.25v-4c0-1.409.841-2.25 2.25-2.25h6c1.409 0 2.25.841 2.25 2.25Zm-9 0v.25h7.5v-.25c0-.589-.161-.75-.75-.75h-6c-.589 0-.75.161-.75.75Zm7.5 4v-2.25h-7.5v2.25c0 .589.161.75.75.75h6c.589 0 .75-.161.75-.75ZM7.5 18.25H6a.75.75 0 0 0 0 1.5h1.5a.75.75 0 0 0 0-1.5Z"/></svg>
